images/icon-lifehacks.svg

<svg width="27" height="27" viewBox="0 0 27 27" fill="none" xmlns="http://www.w3.org/2000/svg">
<path d="M13.0309 6.10022C9.19547 6.10022 6.07505 9.23375 6.07505 13.0852C6.07505 14.6615 6.58974 16.1509 7.56276 17.3916C7.75483 17.6372 7.95664 17.8722 8.17031 18.1211L8.18205 18.1348C8.83575 18.8964 9.51162 19.6842 9.76404 20.6118C9.82109 20.8243 9.8292 21.2319 9.82591 21.5458V22.0794C9.82591 22.5678 10.2201 22.9636 10.7064 22.9636H15.317C15.8033 22.9636 16.1975 22.5678 16.1975 22.0794V21.5396C16.1946 21.1296 16.2157 20.8303 16.2583 20.6751C16.5122 19.7536 17.2612 18.8688 17.928 18.0813L17.9568 18.0473C18.1492 17.8203 18.3311 17.6058 18.4966 17.3944C19.471 16.153 19.9861 14.6629 19.9861 13.0852C19.9859 9.23375 16.8659 6.10022 13.0309 6.10022ZM17.1128 16.3006C16.9678 16.4858 16.7969 16.6875 16.6158 16.901L16.5804 16.9429C15.8014 17.8629 14.9185 18.9057 14.5607 20.2047C14.5101 20.3891 14.4539 20.6649 14.4395 21.1952H11.5853C11.5731 20.632 11.5159 20.3432 11.4637 20.1487C11.1056 18.8325 10.2243 17.8055 9.51597 16.9801L9.50411 16.9662C9.30394 16.7331 9.11493 16.5129 8.94692 16.2983C8.22021 15.3717 7.83607 14.2605 7.83607 13.0852C7.83607 10.2089 10.1665 7.86864 13.0309 7.86864C15.8949 7.86864 18.2249 10.2089 18.2249 13.0852C18.2249 14.2618 17.8406 15.3734 17.1128 16.3006Z" fill="#2F80ED"/>
<path d="M15.3169 23.2146H10.7064C10.2201 23.2146 9.82591 23.6105 9.82591 24.0988C9.82591 24.5872 10.2201 24.9831 10.7064 24.9831H15.317C15.8033 24.9831 16.1975 24.5872 16.1975 24.0988C16.1975 23.6105 15.8032 23.2146 15.3169 23.2146Z" fill="#2F80ED"/>
<path d="M14.1642 25.2316H11.8591C11.3728 25.2316 10.9786 25.6275 10.9786 26.1158C10.9786 26.6041 11.3728 27 11.8591 27H14.1642C14.6505 27 15.0448 26.6041 15.0448 26.1158C15.0448 25.6275 14.6505 25.2316 14.1642 25.2316Z" fill="#2F80ED"/>
<path d="M25.1805 12.201H22.143C21.6567 12.201 21.2624 12.5969 21.2624 13.0852C21.2624 13.5736 21.6567 13.9695 22.143 13.9695H25.1805C25.6668 13.9695 26.061 13.5736 26.061 13.0852C26.061 12.5969 25.6668 12.201 25.1805 12.201Z" fill="#2F80ED"/>
<path d="M4.7989 13.0852C4.7989 12.5969 4.40466 12.201 3.91839 12.201H0.88051C0.394234 12.201 0 12.5969 0 13.0852C0 13.5736 0.394234 13.9695 0.88051 13.9695H3.91839C4.40466 13.9695 4.7989 13.5736 4.7989 13.0852Z" fill="#2F80ED"/>
<path d="M13.0306 4.81965C13.5169 4.81965 13.9111 4.42376 13.9111 3.93544V0.88421C13.9111 0.39589 13.5169 0 13.0306 0C12.5443 0 12.1501 0.39589 12.1501 0.88421V3.93544C12.1501 4.42376 12.5443 4.81965 13.0306 4.81965Z" fill="#2F80ED"/>
<path d="M20.0962 18.9302C19.7523 18.5849 19.1949 18.5848 18.8509 18.9301C18.507 19.2754 18.5069 19.8352 18.8508 20.1806L20.9988 22.3382C21.1708 22.5109 21.3961 22.5972 21.6215 22.5972C21.8468 22.5972 22.0721 22.5109 22.244 22.3383C22.5879 21.993 22.588 21.4333 22.2442 21.0878L20.0962 18.9302Z" fill="#2F80ED"/>
<path d="M5.96387 7.23968C6.13587 7.41239 6.36116 7.49881 6.58657 7.49881C6.81186 7.49881 7.03716 7.41251 7.20903 7.23991C7.55302 6.8946 7.55302 6.33483 7.20927 5.98952L5.06211 3.83252C4.71824 3.48709 4.16082 3.48709 3.81695 3.83228C3.47297 4.1776 3.47297 4.73736 3.81672 5.08267L5.96387 7.23968Z" fill="#2F80ED"/>
<path d="M5.96481 18.9302L3.81672 21.0878C3.47285 21.4331 3.47297 21.993 3.81684 22.3382C3.98871 22.5108 4.21412 22.5971 4.43942 22.5971C4.66471 22.5971 4.89012 22.5108 5.06211 22.3381L7.21021 20.1805C7.55408 19.8352 7.55396 19.2753 7.21009 18.9301C6.86622 18.5849 6.30868 18.5849 5.96481 18.9302Z" fill="#2F80ED"/>
<path d="M19.474 7.49869C19.6992 7.49869 19.9247 7.4124 20.0967 7.23968L22.2442 5.08279C22.588 4.73748 22.5879 4.1776 22.244 3.8324C21.9002 3.48709 21.3426 3.48709 20.9989 3.83252L18.8514 5.98941C18.5075 6.33472 18.5076 6.8946 18.8515 7.2398C19.0232 7.41251 19.2485 7.49869 19.474 7.49869Z" fill="#2F80ED"/>
</svg>

<svg width="27" height="27" fill="none" xmlns="http://www.w3.org/2000/svg"><path d="M13.03 6.1c-3.835 0-6.955 3.134-6.955 6.985 0 1.576.515 3.066 1.488 4.307.192.245.394.48.607.73l.012.013c.654.761 1.33 1.55 1.582 2.477.057.212.065.62.062.934v.533c0 .489.394.885.88.885h4.611c.486 0 .88-.396.88-.885v-.54c-.002-.41.019-.709.061-.864.254-.921 1.003-1.806 1.67-2.594l.029-.034c.192-.227.374-.441.54-.653a6.915 6.915 0 001.49-4.309C19.985 9.234 16.865 6.1 13.03 6.1zm4.083 10.2c-.145.186-.316.387-.497.601l-.036.042c-.779.92-1.661 1.963-2.02 3.262-.05.184-.106.46-.12.99h-2.855c-.012-.563-.07-.852-.121-1.046-.358-1.317-1.24-2.344-1.948-3.169l-.012-.014c-.2-.233-.39-.453-.557-.668a5.16 5.16 0 01-1.11-3.213c0-2.876 2.33-5.216 5.194-5.216s5.194 2.34 5.194 5.216a5.16 5.16 0 01-1.112 3.216zm-1.796 6.915h-4.61a.882.882 0 00-.881.884c0 .488.394.884.88.884h4.611c.486 0 .88-.396.88-.884a.882.882 0 00-.88-.884zm-1.153 2.017H11.86a.882.882 0 00-.88.884c0 .488.394.884.88.884h2.305c.486 0 .88-.396.88-.884a.882.882 0 00-.88-.884zM25.18 12.201h-3.037a.882.882 0 00-.88.884c0 .489.394.884.88.884h3.037a.882.882 0 00.881-.884.882.882 0 00-.88-.884zm-20.381.884a.882.882 0 00-.88-.884H.88a.882.882 0 00-.881.884c0 .489.394.884.88.884h3.038a.88.88 0 00.88-.884zM13.03 4.82a.883.883 0 00.881-.885V.885a.882.882 0 00-.88-.885.882.882 0 00-.88.884v3.051c0 .489.393.885.88.885zm7.066 14.11a.878.878 0 00-1.245 0 .887.887 0 000 1.25l2.148 2.158a.876.876 0 001.245 0 .887.887 0 000-1.25l-2.148-2.158zM5.964 7.24a.876.876 0 001.245 0 .887.887 0 000-1.25L5.062 3.833a.878.878 0 00-1.245 0 .887.887 0 000 1.25L5.964 7.24zm.001 11.69l-2.148 2.158a.887.887 0 000 1.25.876.876 0 001.245 0L7.21 20.18a.887.887 0 000-1.25.878.878 0 00-1.245 0zM19.474 7.499c.225 0 .45-.087.623-.26l2.147-2.156a.887.887 0 000-1.25.878.878 0 00-1.245 0L18.85 5.989a.887.887 0 000 1.25.875.875 0 00.623.26z" fill="#2F80ED"/></svg>
